aloe_vera/img/advantages_1.svg

<svg width="64" height="65" viewBox="0 0 64 65" fill="none" xmlns="http://www.w3.org/2000/svg">
<path d="M44 57.8906H20C18.346 57.8906 17 56.5236 17 54.8438V24.375C17 22.6952 18.346 21.3281 20 21.3281H34C35.654 21.3281 37 22.6952 37 24.375V29.4531C37 33.3734 40.141 36.5625 44 36.5625C45.654 36.5625 47 37.9295 47 39.6094V54.8438C47 56.5236 45.654 57.8906 44 57.8906Z" fill="#F0BC5E"/>
<path d="M49.131 15.6884L41 11.5598V4.0625C41 2.38266 39.654 1.01562 38 1.01562H26C24.346 1.01562 23 2.38266 23 4.0625V11.5598L14.869 15.6884C12.482 16.901 11 19.3375 11 22.0472V56.875C11 60.7943 14.141 63.9844 18 63.9844H46C49.859 63.9844 53 60.7943 53 56.875V22.0472C53 19.3375 51.518 16.901 49.131 15.6884ZM35 9.14062V11.1719H33V9.14062H31V11.1719H29V9.14062H27V11.1719H25V7.10938H39V11.1719H37V9.14062H35ZM26 3.04688H38C38.552 3.04688 39 3.50289 39 4.0625V5.07812H25V4.0625C25 3.50289 25.448 3.04688 26 3.04688ZM51 56.875C51 59.6751 48.757 61.9531 46 61.9531H18C15.243 61.9531 13 59.6751 13 56.875V22.0472C13 20.1114 14.059 18.3706 15.764 17.5053L24.236 13.2031H39.763L48.236 17.5053C49.941 18.3706 51 20.1114 51 22.0472V56.875Z" fill="black"/>
<path d="M44 18.2812C41.243 18.2812 39 20.5593 39 23.3594V29.4531C39 32.2532 41.243 34.5312 44 34.5312C46.757 34.5312 49 32.2532 49 29.4531V23.3594C49 20.5593 46.757 18.2812 44 18.2812ZM47 29.4531C47 31.133 45.654 32.5 44 32.5C42.346 32.5 41 31.133 41 29.4531V23.3594C41 21.6795 42.346 20.3125 44 20.3125C45.654 20.3125 47 21.6795 47 23.3594V29.4531Z" fill="black"/>
<path d="M33 25.3906H21V37.5781H33V25.3906ZM31 35.5469H23V27.4219H31V35.5469Z" fill="black"/>
<path d="M21 39.6094H23V41.6406H21V39.6094Z" fill="black"/>
<path d="M25 39.6094H43V41.6406H25V39.6094Z" fill="black"/>
<path d="M21 43.6719H43V45.7031H21V43.6719Z" fill="black"/>
<path d="M21 47.7344H43V49.7656H21V47.7344Z" fill="black"/>
<path d="M21 51.7969H25V53.8281H21V51.7969Z" fill="black"/>
<path d="M27 51.7969H35V53.8281H27V51.7969Z" fill="black"/>
<path d="M37 51.7969H39V53.8281H37V51.7969Z" fill="black"/>
<path d="M41 51.7969H43V53.8281H41V51.7969Z" fill="black"/>
</svg>

<svg width="64" height="65" fill="none" xmlns="http://www.w3.org/2000/svg"><path d="M44 57.89H20c-1.654 0-3-1.366-3-3.046V24.375c0-1.68 1.346-3.047 3-3.047h14c1.654 0 3 1.367 3 3.047v5.078c0 3.92 3.141 7.11 7 7.11 1.654 0 3 1.366 3 3.046v15.235c0 1.68-1.346 3.047-3 3.047z" fill="#F0BC5E"/><path d="M49.131 15.688L41 11.56V4.062c0-1.68-1.346-3.046-3-3.046H26c-1.654 0-3 1.367-3 3.046v7.498l-8.131 4.128C12.482 16.901 11 19.338 11 22.048v34.827c0 3.92 3.141 7.11 7 7.11h28c3.859 0 7-3.19 7-7.11V22.047c0-2.71-1.482-5.146-3.869-6.359zM35 9.141v2.03h-2v-2.03h-2v2.03h-2v-2.03h-2v2.03h-2V7.11h14v4.063h-2V9.14h-2zm-9-6.094h12c.552 0 1 .456 1 1.015v1.016H25V4.062c0-.56.448-1.015 1-1.015zm25 53.828c0 2.8-2.243 5.078-5 5.078H18c-2.757 0-5-2.278-5-5.078V22.047c0-1.936 1.059-3.676 2.764-4.542l8.472-4.302h15.527l8.473 4.302c1.705.866 2.764 2.606 2.764 4.542v34.828z" fill="#000"/><path d="M44 18.281c-2.757 0-5 2.278-5 5.078v6.094c0 2.8 2.243 5.078 5 5.078s5-2.278 5-5.078V23.36c0-2.8-2.243-5.078-5-5.078zm3 11.172c0 1.68-1.346 3.047-3 3.047s-3-1.367-3-3.047V23.36c0-1.68 1.346-3.047 3-3.047s3 1.367 3 3.047v6.094zM33 25.39H21v12.188h12V25.391zm-2 10.157h-8v-8.125h8v8.125zM21 39.61h2v2.03h-2v-2.03zm4 0h18v2.03H25v-2.03zm-4 4.062h22v2.031H21v-2.031zm0 4.062h22v2.032H21v-2.032zm0 4.063h4v2.031h-4v-2.031zm6 0h8v2.031h-8v-2.031zm10 0h2v2.031h-2v-2.031zm4 0h2v2.031h-2v-2.031z" fill="#000"/></svg>
